build/documents/SignAnotherPersonSolid.svg

<svg xmlns="http://www.w3.org/2000/svg" fill="none" viewBox="0 0 24 24" focusable="false"><path d="M0 0H24V24H0z"/><path fill="#74767B" fill-rule="evenodd" d="M20.3378 4C20.6968 4 20.9878 4.29102 20.9878 4.65C20.9878 5.00899 20.6968 5.3 20.3378 5.3L14.3182 5.3C13.9592 5.3 13.6682 5.00899 13.6682 4.65C13.6682 4.29102 13.9592 4 14.3182 4L20.3378 4ZM9.24446 4.98083C8.73666 4.47303 7.91335 4.47303 7.40555 4.98082L6.24864 6.21858C5.74084 6.72638 5.74084 7.54968 6.24864 8.05748L7.36853 9.17736C7.64447 9.45331 8.09277 9.45033 8.36502 9.17073L10.3841 7.09721C10.6512 6.82283 10.6483 6.38469 10.3775 6.11389L9.24446 4.98083ZM20.9878 8.18369C20.9878 7.82471 20.6968 7.53369 20.3378 7.53369L17.711 7.53369C17.352 7.53369 17.061 7.82471 17.061 8.18369C17.061 8.54268 17.352 8.83369 17.711 8.83369L20.3378 8.83369C20.6968 8.83369 20.9878 8.54268 20.9878 8.18369ZM9.27801 11.0869C9.00721 10.8161 9.0043 10.3779 9.27147 10.1035L11.2905 8.03001C11.5628 7.75042 12.0111 7.74743 12.287 8.02338L19.7192 15.4556C20.1169 15.8533 20.3948 16.3547 20.5212 16.9027L20.9208 18.6342C21.1369 19.5705 20.8383 19.9499 19.902 19.7339L18.1705 19.3343C17.6225 19.2078 17.1211 18.9299 16.7234 18.5323L9.27801 11.0869ZM9.09456 18.8349C8.54196 19.3011 7.82122 19.9092 6.64024 19.9092C4.56871 19.9092 3.60182 18.5611 3.2204 18.0293C3.18673 17.9823 3.15762 17.9417 3.13272 17.909C2.91537 17.6233 2.97078 17.2155 3.25648 16.9981C3.54219 16.7808 3.95 16.8362 4.16735 17.1219C4.20076 17.1658 4.2358 17.2137 4.27298 17.2646C4.65269 17.7839 5.25612 18.6092 6.64024 18.6092C7.32318 18.6092 7.72059 18.2928 8.2889 17.8138L8.31758 17.7896C8.8719 17.322 9.59469 16.7123 10.7816 16.7123C12.7617 16.7123 13.831 18.1105 14.243 18.6493C14.3009 18.725 14.3458 18.7837 14.3784 18.8192C14.6214 19.0835 14.6042 19.4946 14.34 19.7376C14.0757 19.9806 13.6645 19.9634 13.4215 19.6992C13.3346 19.6046 13.2452 19.4936 13.1493 19.3743C12.6801 18.7912 12.0535 18.0123 10.7816 18.0123C10.0938 18.0123 9.69383 18.3297 9.12679 18.8077L9.09456 18.8349Z"/></svg>

<svg xmlns="http://www.w3.org/2000/svg" fill="none" viewBox="0 0 24 24" focusable="false"><path fill="#74767B" fill-rule="evenodd" d="M20.33 4c.36 0 .65.29.65.65 0 .35-.29.64-.65.64h-6.02c-.36 0-.65-.29-.65-.64 0-.36.29-.65.65-.65zm-11.09.98c-.51-.51-1.33-.51-1.84 0L6.24 6.21c-.5.51-.5 1.33 0 1.84l1.12 1.12a.7.7 0 0 0 1 0l2.02-2.08c.27-.27.26-.71-.01-.98zm11.74 3.2c0-.36-.29-.65-.65-.65h-2.62c-.36 0-.65.29-.65.65s.29.65.65.65h2.62c.36 0 .65-.29.65-.65m-11.71 2.9a.694.694 0 0 1 0-.98l2.02-2.07c.27-.28.72-.29.99-.01l7.43 7.43c.4.4.68.9.81 1.45l.4 1.73c.21.94-.09 1.32-1.02 1.1l-1.73-.4c-.55-.13-1.05-.41-1.45-.8zm-.18 7.75c-.55.47-1.27 1.07-2.45 1.07-2.08 0-3.04-1.34-3.42-1.88a.5.5 0 0 1-.09-.12.65.65 0 0 1 .12-.91c.29-.21.69-.16.91.13.04.04.07.09.11.14.38.52.98 1.34 2.37 1.34.68 0 1.08-.31 1.64-.79l.03-.03c.56-.46 1.28-1.07 2.47-1.07 1.98 0 3.05 1.4 3.46 1.93.06.08.1.14.13.17.25.27.23.68-.04.92-.26.25-.67.23-.91-.04-.09-.09-.18-.2-.28-.32-.46-.58-1.09-1.36-2.36-1.36-.69 0-1.09.31-1.66.79z"/></svg>
